img/articles/File.svg

<svg width="56" height="72" viewBox="0 0 56 72" fill="none" xmlns="http://www.w3.org/2000/svg">
<path fill-rule="evenodd" clip-rule="evenodd" d="M40 0L56 16V68C56 70.2091 54.2091 72 52 72H4C1.79086 72 0 70.2091 0 68V4C0 1.79086 1.79086 0 4 0H40ZM36 20V4H4V68H52V20H36Z" fill="#96E2E3"/>
</svg>

<svg width="56" height="72" fill="none" xmlns="http://www.w3.org/2000/svg"><path fill-rule="evenodd" clip-rule="evenodd" d="M40 0l16 16v52a4 4 0 01-4 4H4a4 4 0 01-4-4V4a4 4 0 014-4h36zm-4 20V4H4v64h48V20H36z" fill="#96E2E3"/></svg>
